;FLAVOR:UltiGCode
;TIME:3720
;MATERIAL:16398
;MATERIAL2:0
;NOZZLE_DIAMETER:0.6
;Generated with Cura_SteamEngine 3.2.1
M82 ;absolute extrusion mode

;LAYER_COUNT:107
;LAYER:0
M107
G0 F3927.3 X80.972 Y91.899 Z0.4
;TYPE:SKIRT
G1 F1800 X81.612 Y91.357 E0.1778
G1 X83.344 Y90.038 E0.63933
G1 X83.82 Y89.702 E0.76285
G1 X85.684 Y88.481 E1.23525
G1 X86.252 Y88.141 E1.3756
G1 X88.935 Y86.678 E2.02346
G1 X89.644 Y86.334 E2.19052
G1 X93.27 Y84.787 E3.02627
G1 X93.896 Y84.55 E3.16818
G1 X96.197 Y83.783 E3.68238
G1 X96.732 Y83.624 E3.8007
G1 X99.919 Y82.797 E4.49872
G1 X100.443 Y82.679 E4.61259
G1 X102.908 Y82.209 E5.14459
G1 X103.427 Y82.128 E5.25595
G1 X106.785 Y81.708 E5.97339
G1 X107.37 Y81.656 E6.0979
G1 X110.782 Y81.475 E6.82226
G1 X111.363 Y81.464 E6.94545
G1 X114.795 Y81.525 E7.67315
G1 X115.367 Y81.555 E7.79458
G1 X118.787 Y81.855 E8.52241
G1 X119.365 Y81.927 E8.64589
G1 X122.739 Y82.466 E9.37025
G1 X123.314 Y82.579 E9.49448
G1 X126.611 Y83.35 E10.2123
G1 X127.116 Y83.485 E10.32312
G1 X129.516 Y84.21 E10.85463
G1 X129.957 Y84.357 E10.95318
G1 X132.283 Y85.206 E11.47811
G1 X132.794 Y85.412 E11.59491
G1 X135.759 Y86.726 E12.28245
G1 X136.356 Y87.02 E12.42353
G1 X139.136 Y88.532 E13.09442
G1 X139.733 Y88.891 E13.24211
G1 X142.302 Y90.585 E13.89448
G1 X142.898 Y91.017 E14.05054
G1 X145.233 Y92.877 E14.68341
G1 X145.826 Y93.398 E14.85076
G1 X147.901 Y95.405 E15.46276
G1 X148.477 Y96.022 E15.64171
G1 X150.276 Y98.161 E16.23423
G1 X150.817 Y98.882 E16.42533
G1 X152.32 Y101.129 E16.99844
G1 X152.804 Y101.951 E17.20067
G1 X153.998 Y104.282 E17.7559
G1 X154.361 Y105.099 E17.94543
G1 X155.045 Y106.892 E18.35226
G1 X155.291 Y107.643 E18.5198
G1 X155.791 Y109.462 E18.91973
G1 X155.99 Y110.393 E19.12156
G1 X156.366 Y112.843 E19.64704
G1 X156.46 Y113.959 E19.88447
G1 X156.499 Y116.415 E20.40521
G1 X156.44 Y117.538 E20.64361
G1 X156.143 Y119.976 E21.16429
G1 X155.967 Y120.938 E21.37162
G1 X155.525 Y122.742 E21.76538
G1 X155.288 Y123.535 E21.94084
G1 X154.66 Y125.304 E22.3388
G1 X154.301 Y126.158 E22.5352
G1 X153.183 Y128.45 E23.07582
G1 X152.812 Y129.127 E23.23949
G1 X152.134 Y130.238 E23.51541
G1 X151.724 Y130.847 E23.67105
G1 X150.141 Y132.985 E24.23503
G1 X149.543 Y133.704 E24.43328
G1 X147.668 Y135.712 E25.01571
G1 X147.124 Y136.243 E25.17688
G1 X145.539 Y137.653 E25.62661
G1 X144.977 Y138.11 E25.78017
G1 X142.638 Y139.847 E26.39782
G1 X141.996 Y140.278 E26.56175
G1 X139.424 Y141.836 E27.19925
G1 X138.787 Y142.185 E27.35324
G1 X136.003 Y143.551 E28.01066
G1 X135.447 Y143.799 E28.13973
G1 X133.237 Y144.687 E28.64466
G1 X132.698 Y144.882 E28.76617
G1 X129.613 Y145.878 E29.45343
G1 X129.002 Y146.049 E29.58794
G1 X125.783 Y146.82 E30.28967
G1 X125.256 Y146.928 E30.40372
G1 X122.773 Y147.353 E30.93777
G1 X122.261 Y147.424 E31.04735
G1 X118.887 Y147.785 E31.76672
G1 X118.301 Y147.827 E31.89127
G1 X114.881 Y147.947 E32.61676
G1 X114.306 Y147.947 E32.73866
G1 X110.875 Y147.827 E33.46648
G1 X110.298 Y147.786 E33.58911
G1 X106.886 Y147.425 E34.31649
G1 X106.312 Y147.344 E34.43939
G1 X102.955 Y146.747 E35.16224
G1 X102.452 Y146.642 E35.27117
G1 X99.988 Y146.043 E35.80875
G1 X99.477 Y145.901 E35.92119
G1 X96.292 Y144.905 E36.62865
G1 X95.709 Y144.698 E36.75981
G1 X92.663 Y143.487 E37.45472
G1 X92.073 Y143.225 E37.59158
G1 X89.197 Y141.811 E38.271
G1 X88.599 Y141.485 E38.41539
G1 X85.921 Y139.88 E39.07728
G1 X85.324 Y139.486 E39.22893
G1 X82.869 Y137.707 E39.87167
G1 X82.27 Y137.229 E40.03414
G1 X80.063 Y135.292 E40.65667
G1 X79.481 Y134.728 E40.82848
G1 X77.541 Y132.653 E41.43069
G1 X76.98 Y131.985 E41.61563
G1 X75.327 Y129.79 E42.19816
G1 X74.809 Y129.015 E42.39578
G1 X73.46 Y126.723 E42.9596
G1 X73.064 Y125.962 E43.14147
G1 X72.258 Y124.193 E43.55359
G1 X71.971 Y123.474 E43.71771
G1 X71.347 Y121.671 E44.12219
G1 X71.123 Y120.905 E44.29139
G1 X70.684 Y119.08 E44.68932
G1 X70.53 Y118.26 E44.8662
G1 X70.281 Y116.419 E45.26005
G1 X70.208 Y115.452 E45.46563
G1 X70.168 Y112.996 E45.98638
G1 X70.228 Y111.865 E46.22648
G1 X70.526 Y109.427 E46.74719
G1 X70.736 Y108.333 E46.98335
G1 X71.367 Y105.936 E47.50883
G1 X71.712 Y104.907 E47.73891
G1 X72.67 Y102.574 E48.27358
G1 X73.068 Y101.74 E48.46949
G1 X73.997 Y100.048 E48.8787
G1 X74.455 Y99.31 E49.06284
G1 X75.963 Y97.143 E49.62253
G1 X76.47 Y96.487 E49.7983
G1 X77.795 Y94.942 E50.2298
G1 X78.414 Y94.296 E50.41947
G1 X80.972 Y91.899 E51.16265
G0 F3927.3 X81.334 Y92.285
G1 F1800 X81.933 Y91.779 E51.32888
G1 X83.665 Y90.46 E51.79042
G1 X84.11 Y90.145 E51.906
G1 X85.974 Y88.924 E52.3784
G1 X86.506 Y88.606 E52.5098
G1 X89.189 Y87.143 E53.15766
G1 X89.852 Y86.821 E53.31392
G1 X93.478 Y85.274 E54.14967
G1 X94.064 Y85.052 E54.28252
G1 X96.365 Y84.285 E54.79672
G1 X96.865 Y84.137 E54.90726
G1 X100.052 Y83.31 E55.60528
G1 X100.543 Y83.2 E55.71196
G1 X103.008 Y82.73 E56.24395
G1 X103.493 Y82.653 E56.34806
G1 X106.851 Y82.233 E57.0655
G1 X107.398 Y82.185 E57.18191
G1 X110.81 Y82.004 E57.90627
G1 X111.354 Y81.994 E58.02162
G1 X114.786 Y82.055 E58.74932
G1 X115.321 Y82.083 E58.86289
G1 X118.741 Y82.383 E59.59072
G1 X119.281 Y82.45 E59.70607
G1 X122.655 Y82.989 E60.43043
G1 X123.193 Y83.095 E60.54668
G1 X126.49 Y83.866 E61.2645
G1 X126.962 Y83.992 E61.36807
G1 X129.362 Y84.717 E61.89958
G1 X129.775 Y84.855 E61.99189
G1 X132.101 Y85.704 E62.51683
G1 X132.58 Y85.897 E62.62631
G1 X135.545 Y87.211 E63.31385
G1 X136.103 Y87.486 E63.44573
G1 X138.883 Y88.998 E64.11662
G1 X139.442 Y89.333 E64.25478
G1 X142.011 Y91.027 E64.90715
G1 X142.568 Y91.432 E65.05315
G1 X144.903 Y93.292 E65.68603
G1 X145.458 Y93.779 E65.84257
G1 X147.533 Y95.786 E66.45457
G1 X148.071 Y96.363 E66.62182
G1 X149.87 Y98.502 E67.21435
G1 X150.377 Y99.176 E67.39315
G1 X151.88 Y101.423 E67.96625
G1 X152.332 Y102.192 E68.15536
G1 X153.526 Y104.523 E68.71059
G1 X153.866 Y105.288 E68.88806
G1 X154.55 Y107.081 E69.2949
G1 X154.78 Y107.783 E69.45151
G1 X155.28 Y109.602 E69.85144
G1 X155.466 Y110.473 E70.04025
G1 X155.842 Y112.923 E70.56574
G1 X155.93 Y113.967 E70.78785
G1 X155.969 Y116.423 E71.30859
G1 X155.914 Y117.474 E71.5317
G1 X155.617 Y119.912 E72.05238
G1 X155.452 Y120.812 E72.24636
G1 X155.01 Y122.616 E72.64012
G1 X154.788 Y123.358 E72.80431
G1 X154.16 Y125.127 E73.20227
G1 X153.825 Y125.925 E73.38575
G1 X152.707 Y128.217 E73.92638
G1 X152.36 Y128.851 E74.0796
G1 X151.682 Y129.962 E74.35553
G1 X151.298 Y130.532 E74.50123
G1 X149.715 Y132.67 E75.06521
G1 X149.156 Y133.342 E75.25052
G1 X147.281 Y135.35 E75.83294
G1 X146.772 Y135.847 E75.98376
G1 X145.187 Y137.257 E76.4335
G1 X144.661 Y137.685 E76.57726
G1 X142.322 Y139.422 E77.19491
G1 X141.722 Y139.825 E77.34814
G1 X139.15 Y141.383 E77.98564
G1 X138.553 Y141.709 E78.12984
G1 X135.769 Y143.075 E78.78727
G1 X135.249 Y143.307 E78.90798
G1 X133.039 Y144.195 E79.41291
G1 X132.535 Y144.377 E79.52651
G1 X129.45 Y145.373 E80.21377
G1 X128.879 Y145.534 E80.33955
G1 X125.66 Y146.305 E81.04128
G1 X125.167 Y146.406 E81.14796
G1 X122.684 Y146.831 E81.68201
G1 X122.205 Y146.897 E81.78452
G1 X118.831 Y147.258 E82.50389
G1 X118.282 Y147.297 E82.62057
G1 X114.862 Y147.417 E83.34606
G1 X114.324 Y147.417 E83.46011
G1 X110.893 Y147.297 E84.18793
G1 X110.353 Y147.259 E84.30269
G1 X106.941 Y146.898 E85.03008
G1 X106.404 Y146.822 E85.14505
G1 X103.047 Y146.225 E85.8679
G1 X102.578 Y146.127 E85.96948
G1 X100.114 Y145.528 E86.50706
G1 X99.635 Y145.395 E86.61245
G1 X96.45 Y144.399 E87.31992
G1 X95.905 Y144.205 E87.44256
G1 X92.859 Y142.994 E88.13747
G1 X92.307 Y142.75 E88.26542
G1 X89.431 Y141.336 E88.94484
G1 X88.871 Y141.031 E89.08003
G1 X86.193 Y139.426 E89.74192
G1 X85.635 Y139.057 E89.88374
G1 X83.18 Y137.278 E90.52648
G1 X82.62 Y136.831 E90.67839
G1 X80.413 Y134.894 E91.30092
G1 X79.868 Y134.366 E91.46179
G1 X77.928 Y132.291 E92.064
G1 X77.403 Y131.666 E92.23705
G1 X75.75 Y129.471 E92.81958
G1 X75.266 Y128.746 E93.00438
G1 X73.917 Y126.454 E93.5682
G1 X73.547 Y125.742 E93.73831
G1 X72.741 Y123.973 E94.15043
G1 X72.472 Y123.3 E94.30408
G1 X71.848 Y121.497 E94.70856
G1 X71.638 Y120.781 E94.86675
G1 X71.199 Y118.956 E95.26469
G1 X71.055 Y118.189 E95.43013
G1 X70.806 Y116.348 E95.82398
G1 X70.738 Y115.443 E96.01638
G1 X70.698 Y112.987 E96.53712
G1 X70.754 Y111.93 E96.76152
G1 X71.052 Y109.492 E97.28222
G1 X71.248 Y108.468 E97.50325
G1 X71.879 Y106.071 E98.02872
G1 X72.202 Y105.108 E98.24406
G1 X73.16 Y102.775 E98.77873
G1 X73.533 Y101.995 E98.96202
G1 X74.462 Y100.303 E99.37124
G1 X74.89 Y99.612 E99.54356
G1 X76.398 Y97.445 E100.10325
G1 X76.872 Y96.832 E100.26752
G1 X78.197 Y95.287 E100.69902
G1 X78.776 Y94.682 E100.87655
G1 X81.334 Y92.285 E101.61973
G0 F3927.3 X81.697 Y92.672
G1 F1800 X82.254 Y92.201 E101.77437
G1 X83.986 Y90.882 E102.23591
G1 X84.4 Y90.589 E102.34343
G1 X86.264 Y89.368 E102.81583
G1 X86.76 Y89.071 E102.9384
G1 X89.443 Y87.608 E103.58626
G1 X90.06 Y87.309 E103.73161
G1 X93.686 Y85.762 E104.56736
G1 X94.231 Y85.555 E104.69096
G1 X96.532 Y84.788 E105.20516
G1 X96.998 Y84.65 E105.30819
G1 X100.185 Y83.823 E106.00621
G1 X100.642 Y83.721 E106.10548
G1 X103.107 Y83.251 E106.63747
G1 X103.559 Y83.179 E106.7345
G1 X106.917 Y82.759 E107.45195
G1 X107.426 Y82.714 E107.56028
G1 X110.838 Y82.533 E108.28464
G1 X111.344 Y82.524 E108.39193
G1 X114.776 Y82.585 E109.11962
G1 X115.274 Y82.611 E109.22534
G1 X118.694 Y82.911 E109.95317
G1 X119.198 Y82.974 E110.06085
G1 X122.572 Y83.513 E110.78521
G1 X123.072 Y83.611 E110.89322
G1 X126.369 Y84.382 E111.61104
G1 X126.809 Y84.5 E111.70762
G1 X129.209 Y85.225 E112.23913
G1 X129.593 Y85.353 E112.32494
G1 X131.919 Y86.202 E112.84987
G1 X132.365 Y86.382 E112.95183
G1 X135.33 Y87.696 E113.63938
G1 X135.85 Y87.952 E113.76225
G1 X138.63 Y89.464 E114.43314
G1 X139.15 Y89.776 E114.5617
G1 X141.719 Y91.47 E115.21408
G1 X142.238 Y91.847 E115.35007
G1 X144.573 Y93.707 E115.98295
G1 X145.089 Y94.16 E116.12851
G1 X147.164 Y96.167 E116.74052
G1 X147.666 Y96.705 E116.89651
G1 X149.465 Y98.844 E117.48904
G1 X149.936 Y99.471 E117.65529
G1 X151.439 Y101.718 E118.2284
G1 X151.86 Y102.434 E118.40449
G1 X153.054 Y104.765 E118.95972
G1 X153.371 Y105.477 E119.12494
G1 X154.055 Y107.27 E119.53178
G1 X154.269 Y107.924 E119.67766
G1 X154.769 Y109.743 E120.07759
G1 X154.942 Y110.554 E120.25339
G1 X155.318 Y113.004 E120.77887
G1 X155.4 Y113.975 E120.98546
G1 X155.439 Y116.431 E121.5062
G1 X155.387 Y117.41 E121.71404
G1 X155.09 Y119.848 E122.23471
G1 X154.937 Y120.686 E122.41531
G1 X154.495 Y122.49 E122.80907
G1 X154.289 Y123.181 E122.96193
G1 X153.661 Y124.95 E123.35989
G1 X153.349 Y125.693 E123.53073
G1 X152.231 Y127.985 E124.07136
G1 X151.908 Y128.575 E124.21395
G1 X151.23 Y129.686 E124.48988
G1 X150.872 Y130.217 E124.62565
G1 X149.289 Y132.355 E125.18962
G1 X148.769 Y132.98 E125.36198
G1 X146.894 Y134.988 E125.94441
G1 X146.42 Y135.451 E126.08489
G1 X144.835 Y136.861 E126.53462
G1 X144.345 Y137.259 E126.66845
G1 X142.006 Y138.996 E127.2861
G1 X141.447 Y139.372 E127.42892
G1 X138.875 Y140.93 E128.06642
G1 X138.32 Y141.233 E128.20048
G1 X135.536 Y142.599 E128.8579
G1 X135.052 Y142.815 E128.97026
G1 X132.842 Y143.703 E129.47519
G1 X132.372 Y143.873 E129.58115
G1 X129.287 Y144.869 E130.26841
G1 X128.756 Y145.018 E130.38533
G1 X125.537 Y145.789 E131.08706
G1 X125.077 Y145.883 E131.18659
G1 X122.594 Y146.308 E131.72065
G1 X122.148 Y146.37 E131.81611
G1 X118.774 Y146.731 E132.53548
G1 X118.264 Y146.768 E132.64388
G1 X114.844 Y146.888 E133.36937
G1 X114.343 Y146.888 E133.47558
G1 X110.912 Y146.768 E134.2034
G1 X110.409 Y146.732 E134.3103
G1 X106.997 Y146.371 E135.03769
G1 X106.497 Y146.3 E135.14475
G1 X103.14 Y145.703 E135.8676
G1 X102.703 Y145.612 E135.96223
G1 X100.239 Y145.013 E136.49981
G1 X99.793 Y144.889 E136.59795
G1 X96.608 Y143.893 E137.30542
G1 X96.101 Y143.713 E137.41947
G1 X93.055 Y142.502 E138.11439
G1 X92.541 Y142.274 E138.2336
G1 X89.665 Y140.86 E138.91301
G1 X89.144 Y140.576 E139.03881
G1 X86.466 Y138.971 E139.7007
G1 X85.946 Y138.628 E139.83277
G1 X83.491 Y136.849 E140.47551
G1 X82.969 Y136.433 E140.61702
G1 X80.762 Y134.496 E141.23955
G1 X80.255 Y134.004 E141.38932
G1 X78.315 Y131.929 E141.99154
G1 X77.826 Y131.347 E142.15269
G1 X76.173 Y129.152 E142.73522
G1 X75.723 Y128.477 E142.90721
G1 X74.374 Y126.185 E143.47103
G1 X74.029 Y125.523 E143.62929
G1 X73.223 Y123.754 E144.04141
G1 X72.972 Y123.127 E144.18459
G1 X72.348 Y121.324 E144.58907
G1 X72.153 Y120.657 E144.73639
G1 X71.714 Y118.832 E145.13433
G1 X71.581 Y118.118 E145.2883
G1 X71.332 Y116.277 E145.68214
G1 X71.268 Y115.435 E145.86116
G1 X71.228 Y112.979 E146.3819
G1 X71.28 Y111.994 E146.59101
G1 X71.578 Y109.556 E147.11172
G1 X71.761 Y108.603 E147.31744
G1 X72.392 Y106.206 E147.84292
G1 X72.692 Y105.309 E148.04344
G1 X73.65 Y102.976 E148.57811
G1 X73.997 Y102.25 E148.7487
G1 X74.926 Y100.558 E149.15791
G1 X75.325 Y99.915 E149.31834
G1 X76.833 Y97.748 E149.87804
G1 X77.275 Y97.177 E150.03112
G1 X78.6 Y95.632 E150.46261
G1 X79.139 Y95.069 E150.62785
G1 X81.697 Y92.672 E151.37103
G0 F3927.3 X82.059 Y93.059
G1 F1800 X82.575 Y92.622 E151.51438
G1 X84.307 Y91.303 E151.97592
G1 X84.691 Y91.032 E152.07555
G1 X86.555 Y89.811 E152.54796
G1 X87.013 Y89.537 E152.6611
G1 X89.696 Y88.074 E153.30896
G1 X90.268 Y87.796 E153.44379
G1 X93.894 Y86.249 E154.27954
G1 X94.399 Y86.058 E154.394
G1 X96.7 Y85.291 E154.9082
G1 X97.131 Y85.163 E155.00352
G1 X100.318 Y84.336 E155.70154
G1 X100.741 Y84.241 E155.79345
G1 X103.206 Y83.771 E156.32544
G1 X103.625 Y83.705 E156.41537
G1 X106.983 Y83.285 E157.13281
G1 X107.454 Y83.243 E157.23306
G1 X110.866 Y83.062 E157.95742
G1 X111.335 Y83.054 E158.05686
G1 X114.767 Y83.115 E158.78456
G1 X115.228 Y83.139 E158.88242
G1 X118.648 Y83.439 E159.61025
G1 X119.114 Y83.497 E159.7098
G1 X122.488 Y84.036 E160.43416
G1 X122.952 Y84.127 E160.5344
G1 X126.249 Y84.898 E161.25222
G1 X126.656 Y85.007 E161.34155
G1 X129.056 Y85.732 E161.87306
G1 X129.412 Y85.851 E161.95263
G1 X131.738 Y86.7 E162.47757
G1 X132.15 Y86.866 E162.57173
G1 X135.115 Y88.18 E163.25927
G1 X135.596 Y88.417 E163.37295
G1 X138.376 Y89.929 E164.04384
G1 X138.858 Y90.218 E164.16299
G1 X141.427 Y91.912 E164.81536
G1 X141.908 Y92.261 E164.94135
G1 X144.243 Y94.121 E165.57422
G1 X144.721 Y94.541 E165.70912
G1 X146.796 Y96.548 E166.32112
G1 X147.26 Y97.046 E166.46543
G1 X149.059 Y99.185 E167.05795
G1 X149.496 Y99.766 E167.21208
G1 X150.999 Y102.013 E167.78518
G1 X151.388 Y102.676 E167.94815
G1 X152.582 Y105.007 E168.50338
G1 X152.876 Y105.666 E168.65636
G1 X153.56 Y107.459 E169.06319
G1 X153.758 Y108.064 E169.19815
G1 X154.258 Y109.883 E169.59808
G1 X154.418 Y110.634 E169.76086
G1 X154.794 Y113.084 E170.28635
G1 X154.87 Y113.984 E170.47782
G1 X154.909 Y116.44 E170.99856
G1 X154.861 Y117.346 E171.1909
G1 X154.564 Y119.784 E171.71158
G1 X154.423 Y120.56 E171.87879
G1 X153.981 Y122.364 E172.27255
G1 X153.789 Y123.003 E172.414
G1 X153.161 Y124.772 E172.81196
G1 X152.872 Y125.46 E172.97016
G1 X151.754 Y127.752 E173.51079
G1 X151.455 Y128.299 E173.64294
G1 X150.777 Y129.41 E173.91887
G1 X150.446 Y129.901 E174.04441
G1 X148.863 Y132.039 E174.60838
G1 X148.381 Y132.618 E174.76809
G1 X146.506 Y134.626 E175.35052
G1 X146.067 Y135.055 E175.48065
G1 X144.482 Y136.465 E175.93039
G1 X144.029 Y136.834 E176.05425
G1 X141.69 Y138.571 E176.6719
G1 X141.172 Y138.918 E176.80408
G1 X138.6 Y140.476 E177.44158
G1 X138.086 Y140.758 E177.56587
G1 X135.302 Y142.124 E178.2233
G1 X134.854 Y142.323 E178.32722
G1 X132.644 Y143.211 E178.83215
G1 X132.209 Y143.369 E178.93026
G1 X129.124 Y144.365 E179.61752
G1 X128.632 Y144.503 E179.72585
G1 X125.413 Y145.274 E180.42758
G1 X124.988 Y145.361 E180.51955
G1 X122.505 Y145.786 E181.0536
G1 X122.092 Y145.843 E181.14199
G1 X118.718 Y146.204 E181.86136
G1 X118.245 Y146.238 E181.96189
G1 X114.825 Y146.358 E182.68738
G1 X114.361 Y146.358 E182.78575
G1 X110.93 Y146.238 E183.51356
G1 X110.465 Y146.205 E183.61239
G1 X107.053 Y145.844 E184.33977
G1 X106.59 Y145.779 E184.43889
G1 X103.233 Y145.182 E185.16174
G1 X102.828 Y145.097 E185.24947
G1 X100.364 Y144.498 E185.78705
G1 X99.952 Y144.383 E185.87774
G1 X96.767 Y143.387 E186.5852
G1 X96.296 Y143.22 E186.69115
G1 X93.25 Y142.009 E187.38606
G1 X92.775 Y141.798 E187.49625
