;FLAVOR:UltiGCode
;TIME:4340
;MATERIAL:18093
;MATERIAL2:0
;NOZZLE_DIAMETER:0.8
;Generated with Cura_SteamEngine 3.2.1
M82 ;absolute extrusion mode

;LAYER_COUNT:159
;LAYER:0
M107
G0 F5400 X81.085 Y92.019 Z0.53
;TYPE:SKIRT
G1 F1800 X81.712 Y91.489 E0.30459
G1 X83.444 Y90.17 E1.11228
G1 X83.91 Y89.84 E1.32412
G1 X85.774 Y88.619 E2.15082
G1 X86.331 Y88.285 E2.39178
G1 X89.014 Y86.822 E3.52553
G1 X89.709 Y86.486 E3.81193
G1 X93.335 Y84.939 E5.27449
G1 X93.948 Y84.706 E5.51779
G1 X96.249 Y83.939 E6.41764
G1 X96.773 Y83.784 E6.62037
G1 X99.96 Y82.957 E7.84191
G1 X100.474 Y82.841 E8.0374
G1 X102.939 Y82.371 E8.96839
G1 X103.448 Y82.291 E9.15954
G1 X106.806 Y81.871 E10.41507
G1 X107.379 Y81.82 E10.62849
G1 X110.791 Y81.639 E11.89612
G1 X111.36 Y81.629 E12.10726
G1 X114.792 Y81.69 E13.38073
G1 X115.352 Y81.72 E13.58879
G1 X118.772 Y82.02 E14.86248
G1 X119.339 Y82.09 E15.07443
G1 X122.713 Y82.629 E16.34206
G1 X123.276 Y82.739 E16.55488
G1 X126.573 Y83.51 E17.81107
G1 X127.068 Y83.643 E18.00123
G1 X129.468 Y84.368 E18.93137
G1 X129.9 Y84.512 E19.10031
G1 X132.226 Y85.361 E20.01894
G1 X132.728 Y85.563 E20.2197
G1 X135.693 Y86.877 E21.42289
G1 X136.277 Y87.165 E21.66447
G1 X139.057 Y88.677 E22.83853
G1 X139.642 Y89.029 E23.09182
G1 X142.211 Y90.723 E24.23348
G1 X142.796 Y91.146 E24.50131
G1 X145.131 Y93.006 E25.60884
G1 X145.712 Y93.517 E25.8959
G1 X147.787 Y95.524 E26.96691
G1 X148.351 Y96.129 E27.27377
G1 X150.15 Y98.268 E28.31069
G1 X150.68 Y98.973 E28.63792
G1 X152.183 Y101.22 E29.64085
G1 X152.657 Y102.026 E29.98776
G1 X153.851 Y104.357 E30.95941
G1 X154.207 Y105.158 E31.28461
G1 X154.891 Y106.951 E31.99657
G1 X155.132 Y107.686 E32.28354
G1 X155.632 Y109.505 E32.98342
G1 X155.827 Y110.418 E33.32978
G1 X156.203 Y112.868 E34.24937
G1 X156.295 Y113.961 E34.65631
G1 X156.334 Y116.417 E35.5676
G1 X156.276 Y117.518 E35.97664
G1 X155.979 Y119.956 E36.88782
G1 X155.807 Y120.899 E37.24345
G1 X155.365 Y122.703 E37.93253
G1 X155.132 Y123.48 E38.23348
G1 X154.504 Y125.249 E38.9299
G1 X154.153 Y126.085 E39.26629
G1 X153.035 Y128.377 E40.21239
G1 X152.672 Y129.041 E40.49314
G1 X151.994 Y130.152 E40.97601
G1 X151.592 Y130.749 E41.24303
G1 X150.009 Y132.887 E42.22999
G1 X149.423 Y133.591 E42.56981
G1 X147.548 Y135.599 E43.58906
G1 X147.014 Y136.12 E43.86585
G1 X145.429 Y137.53 E44.65289
G1 X144.878 Y137.978 E44.91635
G1 X142.539 Y139.715 E45.99724
G1 X141.911 Y140.137 E46.27794
G1 X139.339 Y141.695 E47.39357
G1 X138.714 Y142.037 E47.65789
G1 X135.93 Y143.403 E48.80838
G1 X135.385 Y143.646 E49.02977
G1 X133.175 Y144.534 E49.91339
G1 X132.647 Y144.725 E50.1217
G1 X129.562 Y145.721 E51.32441
G1 X128.964 Y145.889 E51.55485
G1 X125.745 Y146.66 E52.78288
G1 X125.228 Y146.766 E52.97868
G1 X122.745 Y147.191 E53.91327
G1 X122.243 Y147.26 E54.10126
G1 X118.869 Y147.621 E55.36016
G1 X118.295 Y147.662 E55.57365
G1 X114.875 Y147.782 E56.84325
G1 X114.312 Y147.782 E57.05213
G1 X110.881 Y147.662 E58.32581
G1 X110.315 Y147.622 E58.53632
G1 X106.903 Y147.261 E59.80923
G1 X106.341 Y147.182 E60.01979
G1 X102.984 Y146.585 E61.28477
G1 X102.491 Y146.481 E61.4717
G1 X100.027 Y145.882 E62.41247
G1 X99.526 Y145.743 E62.60536
G1 X96.341 Y144.747 E63.84343
G1 X95.77 Y144.544 E64.06826
G1 X92.724 Y143.333 E65.28436
G1 X92.146 Y143.077 E65.51889
G1 X89.27 Y141.663 E66.70787
G1 X88.684 Y141.344 E66.9554
G1 X86.006 Y139.739 E68.11371
G1 X85.42 Y139.352 E68.37425
G1 X82.965 Y137.573 E69.49905
G1 X82.379 Y137.105 E69.77728
G1 X80.172 Y135.168 E70.86671
G1 X79.602 Y134.616 E71.16109
G1 X77.662 Y132.541 E72.21497
G1 X77.112 Y131.886 E72.53228
G1 X75.459 Y129.691 E73.55172
G1 X74.951 Y128.931 E73.89086
G1 X73.602 Y126.639 E74.87755
G1 X73.215 Y125.894 E75.18901
G1 X72.409 Y124.125 E75.91022
G1 X72.127 Y123.42 E76.19192
G1 X71.503 Y121.617 E76.89976
G1 X71.283 Y120.867 E77.18974
G1 X70.844 Y119.042 E77.88613
G1 X70.694 Y118.238 E78.18956
G1 X70.445 Y116.397 E78.87879
G1 X70.373 Y115.449 E79.23151
G1 X70.333 Y112.993 E80.14281
G1 X70.391 Y111.885 E80.55444
G1 X70.689 Y109.447 E81.46567
G1 X70.895 Y108.375 E81.87065
G1 X71.526 Y105.978 E82.79024
G1 X71.864 Y104.969 E83.18502
G1 X72.822 Y102.636 E84.1207
G1 X73.213 Y101.82 E84.45639
G1 X74.142 Y100.128 E85.17252
G1 X74.59 Y99.404 E85.48839
G1 X76.098 Y97.237 E86.46785
G1 X76.595 Y96.595 E86.76907
G1 X77.92 Y95.05 E87.52418
G1 X78.527 Y94.416 E87.84982
G1 X81.085 Y92.019 E89.15038
G0 F5400 X81.563 Y92.53
G1 F1800 X82.136 Y92.046 E89.42865
G1 X83.868 Y90.727 E90.23634
G1 X84.294 Y90.426 E90.42986
G1 X86.158 Y89.205 E91.25656
G1 X86.666 Y88.9 E91.47639
G1 X89.349 Y87.437 E92.61015
G1 X89.984 Y87.13 E92.87182
G1 X93.61 Y85.583 E94.33438
G1 X94.17 Y85.37 E94.55666
G1 X96.471 Y84.603 E95.45651
G1 X96.949 Y84.462 E95.6414
G1 X100.136 Y83.635 E96.86294
G1 X100.605 Y83.529 E97.04133
G1 X103.07 Y83.059 E97.97232
G1 X103.535 Y82.986 E98.14695
G1 X106.893 Y82.566 E99.40247
G1 X107.416 Y82.519 E99.59729
G1 X110.828 Y82.338 E100.86492
G1 X111.348 Y82.329 E101.05787
G1 X114.78 Y82.39 E102.33134
G1 X115.291 Y82.417 E102.52119
G1 X118.711 Y82.717 E103.79488
G1 X119.228 Y82.781 E103.98815
G1 X122.602 Y83.32 E105.25577
G1 X123.117 Y83.421 E105.45048
G1 X126.414 Y84.192 E106.70667
G1 X126.865 Y84.313 E106.8799
G1 X129.265 Y85.038 E107.81004
G1 X129.66 Y85.17 E107.96456
G1 X131.986 Y86.019 E108.88319
G1 X132.444 Y86.203 E109.06631
G1 X135.409 Y87.517 E110.2695
G1 X135.943 Y87.78 E110.49034
G1 X138.723 Y89.292 E111.6644
G1 X139.257 Y89.613 E111.89555
G1 X141.826 Y91.307 E113.03721
G1 X142.359 Y91.694 E113.28158
G1 X144.694 Y93.554 E114.38911
G1 X145.225 Y94.02 E114.65122
G1 X147.3 Y96.027 E115.72223
G1 X147.815 Y96.579 E116.00231
G1 X149.614 Y98.718 E117.03923
G1 X150.098 Y99.363 E117.33841
G1 X151.601 Y101.61 E118.34134
G1 X152.034 Y102.345 E118.65783
G1 X153.228 Y104.676 E119.62948
G1 X153.553 Y105.407 E119.92628
G1 X154.237 Y107.2 E120.63824
G1 X154.457 Y107.872 E120.90057
G1 X154.957 Y109.691 E121.60045
G1 X155.135 Y110.524 E121.91647
G1 X155.511 Y112.974 E122.83606
G1 X155.595 Y113.972 E123.20763
G1 X155.634 Y116.428 E124.11892
G1 X155.581 Y117.434 E124.49267
G1 X155.284 Y119.872 E125.40385
G1 X155.127 Y120.732 E125.72818
G1 X154.685 Y122.536 E126.41726
G1 X154.472 Y123.246 E126.69227
G1 X153.844 Y125.015 E127.3887
G1 X153.524 Y125.778 E127.69566
G1 X152.406 Y128.07 E128.64176
G1 X152.074 Y128.677 E128.89844
G1 X151.396 Y129.788 E129.38131
G1 X151.029 Y130.333 E129.62508
G1 X149.446 Y132.471 E130.61203
G1 X148.911 Y133.113 E130.92207
G1 X147.036 Y135.121 E131.94132
G1 X146.549 Y135.597 E132.19397
G1 X144.964 Y137.007 E132.98101
G1 X144.461 Y137.416 E133.22153
G1 X142.122 Y139.153 E134.30241
G1 X141.548 Y139.539 E134.55904
G1 X138.976 Y141.097 E135.67467
G1 X138.406 Y141.409 E135.91574
G1 X135.622 Y142.775 E137.06624
G1 X135.124 Y142.996 E137.26837
G1 X132.914 Y143.884 E138.15199
G1 X132.432 Y144.059 E138.34224
G1 X129.347 Y145.055 E139.54494
G1 X128.801 Y145.208 E139.75531
G1 X125.582 Y145.979 E140.98334
G1 X125.11 Y146.076 E141.16211
G1 X122.627 Y146.501 E142.0967
G1 X122.169 Y146.564 E142.26822
G1 X118.795 Y146.925 E143.52712
G1 X118.271 Y146.962 E143.72201
G1 X114.851 Y147.082 E144.99161
G1 X114.336 Y147.083 E145.18267
G1 X110.905 Y146.963 E146.45635
G1 X110.389 Y146.926 E146.64828
G1 X106.977 Y146.565 E147.9212
G1 X106.463 Y146.492 E148.1138
G1 X103.106 Y145.895 E149.37879
G1 X102.657 Y145.801 E149.54898
G1 X100.193 Y145.202 E150.48975
G1 X99.735 Y145.075 E150.66608
G1 X96.55 Y144.079 E151.90414
G1 X96.029 Y143.894 E152.10926
G1 X92.983 Y142.683 E153.32536
G1 X92.455 Y142.449 E153.53962
G1 X89.579 Y141.035 E154.72861
G1 X89.044 Y140.743 E154.95473
G1 X86.366 Y139.138 E156.11304
G1 X85.831 Y138.786 E156.35063
G1 X83.376 Y137.007 E157.47544
G1 X82.841 Y136.579 E157.72962
G1 X80.634 Y134.642 E158.81905
G1 X80.113 Y134.138 E159.08798
G1 X78.173 Y132.063 E160.14186
G1 X77.671 Y131.465 E160.43152
G1 X76.018 Y129.27 E161.45096
G1 X75.555 Y128.576 E161.76047
G1 X74.206 Y126.284 E162.74716
G1 X73.852 Y125.603 E163.03191
G1 X73.046 Y123.834 E163.75312
G1 X72.788 Y123.191 E164.01016
G1 X72.164 Y121.388 E164.718
G1 X71.964 Y120.703 E164.98274
G1 X71.525 Y118.878 E165.67913
G1 X71.387 Y118.144 E165.95622
G1 X71.138 Y116.303 E166.64545
G1 X71.073 Y115.438 E166.96727
G1 X71.033 Y112.982 E167.87856
G1 X71.086 Y111.97 E168.25453
G1 X71.384 Y109.532 E169.16576
G1 X71.572 Y108.553 E169.5356
G1 X72.203 Y106.156 E170.45519
G1 X72.512 Y105.235 E170.8156
G1 X73.47 Y102.902 E171.75127
G1 X73.826 Y102.157 E172.0576
G1 X74.755 Y100.465 E172.77373
G1 X75.165 Y99.804 E173.0623
G1 X76.673 Y97.637 E174.04177
G1 X77.127 Y97.05 E174.31708
G1 X78.452 Y95.505 E175.0722
G1 X79.005 Y94.927 E175.36897
G1 X81.563 Y92.53 E176.66953
G0 F5400 X82.042 Y93.041
G1 F1800 X82.56 Y92.602 E176.92144
G1 X84.292 Y91.283 E177.72913
G1 X84.677 Y91.011 E177.90402
G1 X86.541 Y89.79 E178.73072
G1 X87.001 Y89.515 E178.92955
G1 X89.684 Y88.052 E180.06331
G1 X90.258 Y87.773 E180.30009
G1 X93.884 Y86.226 E181.76265
G1 X94.391 Y86.034 E181.96378
G1 X96.692 Y85.267 E182.86363
G1 X97.125 Y85.139 E183.03115
G1 X100.312 Y84.312 E184.25268
G1 X100.736 Y84.217 E184.41389
G1 X103.201 Y83.747 E185.34488
G1 X103.622 Y83.68 E185.50303
G1 X106.98 Y83.26 E186.75856
G1 X107.453 Y83.218 E186.93473
G1 X110.865 Y83.037 E188.20236
G1 X111.335 Y83.029 E188.37676
G1 X114.767 Y83.09 E189.65023
G1 X115.23 Y83.114 E189.82224
G1 X118.65 Y83.414 E191.09593
G1 X119.118 Y83.472 E191.27089
G1 X122.492 Y84.011 E192.53851
G1 X122.957 Y84.103 E192.71437
G1 X126.254 Y84.874 E193.97056
G1 X126.663 Y84.983 E194.12759
G1 X129.063 Y85.708 E195.05773
G1 X129.42 Y85.827 E195.19734
G1 X131.746 Y86.676 E196.11598
G1 X132.16 Y86.843 E196.2816
G1 X135.125 Y88.157 E197.48479
G1 X135.608 Y88.395 E197.68456
G1 X138.388 Y89.907 E198.85862
G1 X138.872 Y90.197 E199.06795
G1 X141.441 Y91.891 E200.2096
G1 X141.923 Y92.242 E200.43082
G1 X144.258 Y94.102 E201.53835
G1 X144.738 Y94.523 E201.77522
G1 X146.813 Y96.53 E202.84623
G1 X147.279 Y97.03 E203.0998
G1 X149.078 Y99.169 E204.13673
G1 X149.516 Y99.752 E204.40726
G1 X151.019 Y101.999 E205.4102
G1 X151.411 Y102.664 E205.69659
G1 X152.605 Y104.995 E206.66824
G1 X152.899 Y105.657 E206.93697
G1 X153.583 Y107.45 E207.64893
G1 X153.782 Y108.057 E207.88592
G1 X154.282 Y109.876 E208.5858
G1 X154.443 Y110.63 E208.87184
G1 X154.819 Y113.08 E209.79144
G1 X154.895 Y113.983 E210.12763
G1 X154.934 Y116.439 E211.03892
G1 X154.886 Y117.349 E211.377
G1 X154.589 Y119.787 E212.28819
G1 X154.447 Y120.566 E212.58196
G1 X154.005 Y122.37 E213.27104
G1 X153.813 Y123.012 E213.51965
G1 X153.185 Y124.781 E214.21607
G1 X152.895 Y125.471 E214.49375
G1 X151.777 Y127.763 E215.43985
G1 X151.476 Y128.312 E215.67214
G1 X150.798 Y129.423 E216.15501
G1 X150.466 Y129.916 E216.37552
G1 X148.883 Y132.054 E217.36247
G1 X148.399 Y132.636 E217.6433
G1 X146.524 Y134.644 E218.66255
G1 X146.084 Y135.074 E218.8908
G1 X144.499 Y136.484 E219.67784
G1 X144.044 Y136.854 E219.89541
G1 X141.705 Y138.591 E220.9763
G1 X141.185 Y138.94 E221.20864
G1 X138.613 Y140.498 E222.32427
G1 X138.097 Y140.78 E222.54242
G1 X135.313 Y142.146 E223.69292
G1 X134.863 Y142.347 E223.87577
G1 X132.653 Y143.235 E224.75939
G1 X132.217 Y143.392 E224.93131
G1 X129.132 Y144.388 E226.13402
G1 X128.638 Y144.527 E226.32441
G1 X125.419 Y145.298 E227.55244
G1 X124.992 Y145.386 E227.71418
G1 X122.509 Y145.811 E228.64877
G1 X122.094 Y145.868 E228.80418
G1 X118.72 Y146.229 E230.06308
G1 X118.246 Y146.263 E230.23939
G1 X114.826 Y146.383 E231.50899
G1 X114.361 Y146.383 E231.6815
G1 X110.93 Y146.263 E232.95518
G1 X110.462 Y146.23 E233.12924
G1 X107.05 Y145.869 E234.40216
G1 X106.586 Y145.803 E234.57604
G1 X103.229 Y145.206 E235.84102
G1 X102.822 Y145.121 E235.99528
G1 X100.358 Y144.522 E236.93605
G1 X99.944 Y144.407 E237.09546
G1 X96.759 Y143.411 E238.33352
G1 X96.287 Y143.244 E238.51927
G1 X93.241 Y142.033 E239.73537
G1 X92.764 Y141.821 E239.92903
G1 X89.888 Y140.407 E241.11801
G1 X89.403 Y140.143 E241.32288
G1 X86.725 Y138.538 E242.48119
G1 X86.242 Y138.219 E242.69594
G1 X83.787 Y136.44 E243.82074
G1 X83.302 Y136.053 E244.05094
G1 X81.095 Y134.116 E245.14036
G1 X80.624 Y133.66 E245.38358
G1 X78.684 Y131.585 E246.43746
G1 X78.23 Y131.043 E246.69976
G1 X76.577 Y128.848 E247.7192
G1 X76.158 Y128.221 E247.99898
G1 X74.809 Y125.929 E248.98566
G1 X74.489 Y125.313 E249.24319
G1 X73.683 Y123.544 E249.9644
G1 X73.45 Y122.962 E250.19699
G1 X72.826 Y121.159 E250.90483
G1 X72.644 Y120.539 E251.14455
G1 X72.205 Y118.714 E251.84094
G1 X72.081 Y118.05 E252.09154
G1 X71.832 Y116.209 E252.78077
G1 X71.773 Y115.426 E253.07209
G1 X71.733 Y112.97 E253.98339
G1 X71.781 Y112.055 E254.32332
G1 X72.079 Y109.617 E255.23455
G1 X72.249 Y108.731 E255.56925
G1 X72.88 Y106.334 E256.48883
G1 X73.159 Y105.501 E256.81475
G1 X74.117 Y103.168 E257.75043
G1 X74.44 Y102.493 E258.02804
G1 X75.369 Y100.801 E258.74417
G1 X75.74 Y100.204 E259.00494
G1 X77.248 Y98.037 E259.98441
G1 X77.658 Y97.506 E260.2333
G1 X78.983 Y95.961 E260.98841
G1 X79.484 Y95.438 E261.25711
G1 X82.042 Y93.041 E262.55767
G0 F5400 X82.521 Y93.551
G1 F1800 X82.984 Y93.159 E262.78274
G1 X84.716 Y91.84 E263.59043
G1 X85.061 Y91.597 E263.74699
G1 X86.925 Y90.376 E264.57369
G1 X87.337 Y90.129 E264.75191
G1 X90.02 Y88.666 E265.88566
G1 X90.533 Y88.417 E266.09722
G1 X94.159 Y86.87 E267.55979
G1 X94.612 Y86.698 E267.73955
G1 X96.913 Y85.931 E268.6394
G1 X97.301 Y85.817 E268.78944
G1 X100.488 Y84.99 E270.01097
G1 X100.868 Y84.904 E270.15552
G1 X103.333 Y84.434 E271.08651
G1 X103.709 Y84.375 E271.22771
G1 X107.067 Y83.955 E272.48324
G1 X107.49 Y83.917 E272.6408
G1 X110.902 Y83.736 E273.90843
G1 X111.323 Y83.729 E274.06465
G1 X114.755 Y83.79 E275.33812
G1 X115.169 Y83.812 E275.49193
G1 X118.589 Y84.112 E276.76562
G1 X119.008 Y84.164 E276.92226
G1 X122.382 Y84.703 E278.18989
G1 X122.798 Y84.784 E278.34712
G1 X126.095 Y85.555 E279.60331
G1 X126.461 Y85.653 E279.74388
G1 X128.861 Y86.378 E280.67402
G1 X129.18 Y86.485 E280.79885
G1 X131.506 Y87.334 E281.71748
G1 X131.877 Y87.483 E281.86581
G1 X134.842 Y88.797 E283.06901
G1 X135.274 Y89.01 E283.2477
G1 X138.054 Y90.522 E284.42176
G1 X138.486 Y90.782 E284.60882
G1 X141.055 Y92.476 E285.75047
G1 X141.487 Y92.789 E285.94839
G1 X143.822 Y94.649 E287.05593
G1 X144.252 Y95.026 E287.26809
G1 X146.327 Y97.033 E288.3391
G1 X146.744 Y97.48 E288.56589
G1 X148.543 Y99.619 E289.60282
G1 X148.935 Y100.141 E289.845
G1 X150.438 Y102.388 E290.84794
G1 X150.788 Y102.983 E291.10405
G1 X151.982 Y105.314 E292.0757
G1 X152.245 Y105.906 E292.31603
G1 X152.929 Y107.699 E293.02799
G1 X153.107 Y108.243 E293.24034
G1 X153.607 Y110.062 E293.94022
G1 X153.751 Y110.736 E294.19592
G1 X154.127 Y113.186 E295.11551
G1 X154.195 Y113.995 E295.41671
G1 X154.234 Y116.451 E296.328
G1 X154.191 Y117.265 E296.63042
G1 X153.894 Y119.703 E297.5416
G1 X153.767 Y120.399 E297.80408
G1 X153.325 Y122.203 E298.49316
G1 X153.153 Y122.778 E298.71583
G1 X152.525 Y124.547 E299.41225
G1 X152.266 Y125.165 E299.66085
G1 X151.148 Y127.457 E300.60695
G1 X150.879 Y127.947 E300.81433
G1 X150.201 Y129.058 E301.29721
G1 X149.904 Y129.5 E301.49477
G1 X148.321 Y131.638 E302.48172
G1 X147.888 Y132.158 E302.73277
G1 X146.013 Y134.166 E303.75202
G1 X145.619 Y134.551 E303.95639
G1 X144.034 Y135.961 E304.74343
G1 X143.626 Y136.292 E304.93835
G1 X141.287 Y138.029 E306.01923
G1 X140.823 Y138.341 E306.22667
G1 X138.251 Y139.899 E307.3423
G1 X137.789 Y140.152 E307.53772
G1 X135.005 Y141.518 E308.68822
G1 X134.602 Y141.697 E308.85181
G1 X132.392 Y142.585 E309.73544
G1 X132.002 Y142.726 E309.88929
G1 X128.917 Y143.722 E311.092
G1 X128.475 Y143.846 E311.26231
G1 X125.256 Y144.617 E312.49034
G1 X124.874 Y144.696 E312.63506
G1 X122.391 Y145.121 E313.56965
G1 X122.02 Y145.172 E313.70858
G1 X118.646 Y145.533 E314.96748
G1 X118.222 Y145.563 E315.12518
G1 X114.802 Y145.683 E316.39478
G1 X114.385 Y145.683 E316.54949
G1 X110.954 Y145.563 E317.82317
G1 X110.536 Y145.534 E317.97862
G1 X107.124 Y145.173 E319.25154
G1 X106.708 Y145.114 E319.40742
G1 X103.351 Y144.517 E320.6724
G1 X102.987 Y144.441 E320.81036
G1 X100.523 Y143.842 E321.75113
G1 X100.153 Y143.739 E321.89362
